X: 1
T:Mrs. Flora Duncan  " "
M:C
L:1/8
Q:80
C:
S:March
K:HP
[| {g}f2{gfg}fa{Gdc}d2{e}Ad|
{g}d/2{e}A3/2{g}c3/2d/2{gef}e2-eA|
{gef}e2{A}e3/2f/2{gf}g3/2e/2{gcd}c{e}A|  !
{g}A/2d3/2{gdG}d3/2e/2{gfg}f2-f{g}A|
{g}f2{gfg}fa{Gdc}d2{e}Ad|
{g}d/2{e}A3/2{g}c3/2d/2{gef}e2-e{GAG}A|  !
{ag}a3/2g/2{fg}fa{gf}g3/2e/2{gcd}cA|
{GAG}A/2g3/2{a}f3/2e{Gdc}d2-dA|] [|
{gAGAG}A2{gBd}B{e}A{Gdc}d2{e}Ad|  !
{g}d/2{e}A3/2{g}c3/2d/2{gef}e2-eA|
{gAGAG}A2{gBd}B{e}A{gef}e2{gAGAG}Ae|
{gef}e/2d3/2{gdG}d3/2e/2{gef}f2-fA|  !
{gAGAG}A2{gBd}B{e}A{gfg}f2{Gdc}d3/2e|
{gfg}fd{g}f/2a3/2{f}g2{a}f3/2g/2|
{ag}a3/2g/2{fg}fa{f}g3/2e/2{gcd}c{e}A|  !
{GAG}A/2g3/2{a}f3/2e{Gdc}d3|]
